svg/u1f9ec.svg

<svg viewBox="0 0 128 128" xmlns="http://www.w3.org/2000/svg">
  <g>
    <path d="M15.87,60.07c7.11-7.11,15.53-8.55,23.94-8.59c-4.93,1.69-8.59,5.23-12.06,10.21 c-9.14,13.12-4.12,33.31-0.87,45.08c1.54,5.58,3.13,11.4,4.04,17.23H14.58c-0.74-3.87-1.85-8.15-3.18-12.96 C6.82,94.4,1.34,74.6,15.87,60.07z" fill="#00897B"/>
    <path d="M116.69,16.96c4.58,16.64,9.78,35.49-4.75,50.02c-1.85,1.85-4.22,3.71-6.5,5.07 c-3.06,1.82-5.71,2.66-5.71,2.66s5-9.77,5.72-15.06c1.77-12.89-0.84-26.04-4.25-38.43C99.68,15.65,98.08,9.83,97.17,4h16.34 C114.26,7.86,115.37,12.15,116.69,16.96z" fill="#00897B"/>
    <path d="M72.37,27.41c-7.39,7.39-5.17,17.93-0.63,34.41c3.69,13.4,10.69,32.75-4.73,40.95 c-4.86,2.58-13.07,1.38-18.55,1.87c1.48-0.13,6.07-3.04,7.18-4.15c7.39-7.39,5.17-17.93,0.63-34.41 c-4.58-16.64-9.78-35.49,4.75-50.02c14.53-14.53,33.39-9.33,50.02-4.75c4.81,1.33,9.1,2.43,12.96,3.18v16.34 c-5.83-0.91-11.65-2.51-17.23-4.04C90.29,22.25,79.76,20.02,72.37,27.41z" fill="#AB47BC"/>
    <g>
      <path d="M34.3,113.48c1.3,1.3,1.3,3.57,0,4.87v0c-0.65,0.65-1.52,1.01-2.43,1.01 c-0.92,0-1.78-0.36-2.43-1.01l-8.6-11.18l4.28-4.28L34.3,113.48z" fill="#F9A825"/>
      <path d="M13.05,92.47c1.31-0.98,3.25,0.37,3.9,1.02l8.17,9.41l-4.28,4.28l-8.16-10.6 C12.02,95.92,11.12,93.91,13.05,92.47z" fill="#40C4FF"/>
      <path d="M50.87,110.89c1.34,1.34,1.34,3.53,0,4.87c-0.65,0.65-1.51,1.01-2.43,1.01 c-0.92,0-1.78-0.36-2.43-1.01L29.2,98.8l4.19-4.19L50.87,110.89z" fill="#40C4FF"/>
      <path d="M12.25,77.96c1.43-1.25,3.58,0.19,4.92,1.53l16.22,15.12L29.2,98.8L13.09,82.55 C11.86,81.27,10.59,79.4,12.25,77.96z" fill="#9ED839"/>
      <path d="M60.45,101.31c1.3,1.3,1.3,3.57,0,4.87c-1.34,1.34-3.53,1.34-4.87,0L38.7,89.3l4.87-4.87 L60.45,101.31z" fill="#9ED839"/>
      <path d="M14.82,64c0-0.92,0.36-1.78,1.01-2.44c1.34-1.34,3.53-1.34,4.87,0l22.87,22.87L38.7,89.3 L15.83,66.43C15.18,65.78,14.82,64.92,14.82,64z" fill="#40C4FF"/>
      <path d="M67.71,88.18c1.3,1.3,1.99,3.44,0.69,4.74c0,0-1.98,1.47-3.32,0.13L49.21,78.79l4.28-4.28 L67.71,88.18z" fill="#2E5FE6"/>
      <path d="M29.98,60c0-0.92,0.36-1.78,1.01-2.43c0.65-0.65,1.52-1.01,2.43-1.01c0.92,0,1.79,0.36,2.43,1.01 l17.63,16.94l-4.28,4.28L30.99,62.44C30.34,61.79,29.98,60.92,29.98,60z" fill="#EE8CFF"/>
      <path d="M67.81,73.79c1.3,1.3,2.1,3.17,1.29,4.17s-2.53,1.29-4.57-0.79c-0.8-0.82-3.63-3.71-6.78-6.92 l4.13-4.13L67.81,73.79z" fill="#40C4FF"/>
      <path d="M46.2,57.07c0-0.88,0.34-1.76,1.01-2.43c1.34-1.34,3.52-1.34,4.87,0l5.73,6.23l4.06,5.25 l-4.13,4.13c-4.89-4.99-10.54-10.75-10.54-10.75C46.54,58.83,46.2,57.95,46.2,57.07z" fill="#F9A825"/>
      <path d="M82.19,65.59c1.34,1.34,1.34,3.53,0,4.87l0,0c-1.34,1.34-3.53,1.34-4.87,0 c0,0-4.54-5.25-9.15-10.63l4.13-4.13L82.19,65.59z" fill="#9ED839"/>
      <path d="M58.3,44.05c1.13-0.81,2.7,0.36,3.35,1.01l9.81,9.81l0.84,0.84l-4.13,4.13 c-4.35-5.08-8.76-10.28-9.46-11.29C58.19,47.79,56.65,45.23,58.3,44.05z" fill="#40C4FF"/>
      <path d="M98.76,63c1.3,1.3,1.3,3.57,0,4.87c-1.34,1.34-3.53,1.34-4.87,0L77.56,50.44l4.31-4.31L98.76,63z" fill="#40C4FF"/>
      <path d="M59.72,28.84c1.08-1.56,2.47-2.03,4.87,0l17.28,17.28l-4.31,4.31L60.79,32.53 C60.12,31.86,58.95,29.97,59.72,28.84z" fill="#9ED839"/>
      <path d="M108.34,53.43c1.34,1.34,1.34,3.53,0,4.87c-1.34,1.34-3.53,1.34-4.87,0L86.62,41.38l4.87-4.87 L108.34,53.43z" fill="#EE8CFF"/>
      <path d="M66.17,19.42c0-0.92,0.36-1.78,1.01-2.43c1.34-1.34,3.53-1.34,4.87,0l19.44,19.52l-4.87,4.87 L66.53,21.2C65.88,20.55,66.17,20.34,66.17,19.42z" fill="#2E5FE6"/>
      <path d="M111.55,37.25c2.49,2.4,3.82,4.14,3,5.48c-0.94,1.54-2.35,1.89-5.6-0.75 c-1.3-1.06-6.42-5.7-12.07-10.87l4.22-4.22L111.55,37.25z" fill="#40C4FF"/>
      <path d="M77.87,12.12c0-0.88,0.34-1.76,1.01-2.44c1.34-1.34,3.53-1.34,4.87,0l17.36,17.21l-4.22,4.22 c-8.41-7.69-18.01-16.56-18.01-16.56C78.21,13.88,77.87,13,77.87,12.12z" fill="#9ED839"/>
    </g>
    <path d="M66.31,100.24c5.44-2.69,8.52-7.13,10.21-12.06c-0.05,8.41-2.43,16.55-9.54,23.66 c-14.53,14.53-33.39,9.34-50.02,4.75c-4.81-1.33-9.1-2.43-12.96-3.18V97.07c5.83,0.91,11.65,2.51,17.23,4.04 C33,104.36,52.81,106.93,66.31,100.24z" fill="#EE8CFF"/>
    <path d="M67.54,21.53c-8.14,1.07-14.25,6.73-14.25,6.73s0.84-2.64,2.66-5.71c1.36-2.28,3.22-4.64,5.07-6.5 c14.53-14.53,33.39-9.33,50.02-4.75c4.81,1.33,9.1,2.43,12.96,3.18v16.34c-5.83-0.91-11.65-2.51-17.23-4.04 C94.39,23.37,80.45,19.84,67.54,21.53z" fill="#EE8CFF"/>
    <path d="M111.94,66.99c-14.53,14.53-33.39,9.34-50.02,4.75c-6.26-1.72-40.08-16.4-55.02,6.22 c0,0,2.96-20.8,20.69-27.19c14.31-5.16,35.8,4.72,38.6,5.5c17.25,4.75,33.4,6.63,47.56-6.48c3.24-3,6.69-7.78,7.45-12.13 C120.85,39.6,125.29,53.64,111.94,66.99z" fill="#00BFA5"/>
  </g>
</svg>

<svg viewBox="0 0 128 128" xmlns="http://www.w3.org/2000/svg">
  <defs/>
  <path d="M15.87,60.07 C22.98,52.96 31.4,51.52 39.81,51.48 C34.88,53.17 31.22,56.71 27.75,61.69 C18.61,74.81 23.63,95 26.88,106.77 C28.42,112.35 30.01,118.17 30.92,124 L14.58,124 C13.84,120.13 12.73,115.85 11.4,111.04 C6.82,94.4 1.34,74.6 15.87,60.07 Z" fill="#00897B"/>
  <path d="M116.69,16.96 C121.27,33.6 126.47,52.45 111.94,66.98 C110.09,68.83 107.72,70.69 105.44,72.05 C102.38,73.87 99.73,74.71 99.73,74.71 C99.73,74.71 104.73,64.94 105.45,59.65 C107.22,46.76 104.61,33.61 101.2,21.22 C99.68,15.65 98.08,9.83 97.17,4 L113.51,4 C114.26,7.86 115.37,12.15 116.69,16.96 Z" fill="#00897B"/>
  <path d="M72.37,27.41 C64.98,34.8 67.2,45.34 71.74,61.82 C75.43,75.22 82.43,94.57 67.01,102.77 C62.15,105.35 53.94,104.15 48.46,104.64 C49.94,104.51 54.53,101.6 55.64,100.49 C63.03,93.1 60.81,82.56 56.27,66.08 C51.69,49.44 46.49,30.59 61.02,16.06 C75.55,1.53 94.41,6.73 111.04,11.31 C115.85,12.64 120.14,13.74 124,14.49 L124,30.83 C118.17,29.92 112.35,28.32 106.77,26.79 C90.29,22.25 79.76,20.02 72.37,27.41 Z" fill="#AB47BC"/>
  <path d="M34.3,113.48 C35.6,114.78 35.6,117.05 34.3,118.35 L34.3,118.35 C33.65,119 32.78,119.36 31.87,119.36 C30.95,119.36 30.09,119 29.44,118.35 L20.84,107.17 L25.12,102.89 L34.3,113.48 Z" fill="#F9A825"/>
  <path d="M13.05,92.47 C14.36,91.49 16.3,92.84 16.95,93.49 L25.12,102.9 L20.84,107.18 L12.68,96.58 C12.02,95.92 11.12,93.91 13.05,92.47 Z" fill="#40C4FF"/>
  <path d="M50.87,110.89 C52.21,112.23 52.21,114.42 50.87,115.76 C50.22,116.41 49.36,116.77 48.44,116.77 C47.52,116.77 46.66,116.41 46.01,115.76 L29.2,98.8 L33.39,94.61 L50.87,110.89 Z" fill="#40C4FF"/>
  <path d="M12.25,77.96 C13.68,76.71 15.83,78.15 17.17,79.49 L33.39,94.61 L29.2,98.8 L13.09,82.55 C11.86,81.27 10.59,79.4 12.25,77.96 Z" fill="#9ED839"/>
  <path d="M60.45,101.31 C61.75,102.61 61.75,104.88 60.45,106.18 C59.11,107.52 56.92,107.52 55.58,106.18 L38.7,89.3 L43.57,84.43 L60.45,101.31 Z" fill="#9ED839"/>
  <path d="M14.82,64 C14.82,63.08 15.18,62.22 15.83,61.56 C17.17,60.22 19.36,60.22 20.7,61.56 L43.57,84.43 L38.7,89.3 L15.83,66.43 C15.18,65.78 14.82,64.92 14.82,64 Z" fill="#40C4FF"/>
  <path d="M67.71,88.18 C69.01,89.48 69.7,91.62 68.4,92.92 C68.4,92.92 66.42,94.39 65.08,93.05 L49.21,78.79 L53.49,74.51 L67.71,88.18 Z" fill="#2E5FE6"/>
  <path d="M29.98,60 C29.98,59.08 30.34,58.22 30.99,57.57 C31.64,56.92 32.51,56.56 33.42,56.56 C34.34,56.56 35.21,56.92 35.85,57.57 L53.48,74.51 L49.2,78.79 L30.99,62.44 C30.34,61.79 29.98,60.92 29.98,60 Z" fill="#EE8CFF"/>
  <path d="M67.81,73.79 C69.11,75.09 69.91,76.96 69.1,77.96 C68.29,78.96 66.57,79.25 64.53,77.17 C63.73,76.35 60.9,73.46 57.75,70.25 L61.88,66.12 L67.81,73.79 Z" fill="#40C4FF"/>
  <path d="M46.2,57.07 C46.2,56.19 46.54,55.31 47.21,54.64 C48.55,53.3 50.73,53.3 52.08,54.64 L57.81,60.87 L61.87,66.12 L57.74,70.25 C52.85,65.26 47.2,59.5 47.2,59.5 C46.54,58.83 46.2,57.95 46.2,57.07 Z" fill="#F9A825"/>
  <path d="M82.19,65.59 C83.53,66.93 83.53,69.12 82.19,70.46 L82.19,70.46 C80.85,71.8 78.66,71.8 77.32,70.46 C77.32,70.46 72.78,65.21 68.17,59.83 L72.3,55.7 L82.19,65.59 Z" fill="#9ED839"/>
  <path d="M58.3,44.05 C59.43,43.24 61,44.41 61.65,45.06 L71.46,54.87 L72.3,55.71 L68.17,59.84 C63.82,54.76 59.41,49.56 58.71,48.55 C58.19,47.79 56.65,45.23 58.3,44.05 Z" fill="#40C4FF"/>
  <path d="M98.76,63 C100.06,64.3 100.06,66.57 98.76,67.87 C97.42,69.21 95.23,69.21 93.89,67.87 L77.56,50.44 L81.87,46.13 L98.76,63 Z" fill="#40C4FF"/>
  <path d="M59.72,28.84 C60.8,27.28 62.19,26.81 64.59,28.84 L81.87,46.12 L77.56,50.43 L60.79,32.53 C60.12,31.86 58.95,29.97 59.72,28.84 Z" fill="#9ED839"/>
  <path d="M108.34,53.43 C109.68,54.77 109.68,56.96 108.34,58.3 C107,59.64 104.81,59.64 103.47,58.3 L86.62,41.38 L91.49,36.51 L108.34,53.43 Z" fill="#EE8CFF"/>
  <path d="M66.17,19.42 C66.17,18.5 66.53,17.64 67.18,16.99 C68.52,15.65 70.71,15.65 72.05,16.99 L91.49,36.51 L86.62,41.38 L66.53,21.2 C65.88,20.55 66.17,20.34 66.17,19.42 Z" fill="#2E5FE6"/>
  <path d="M111.55,37.25 C114.04,39.65 115.37,41.39 114.55,42.73 C113.61,44.27 112.2,44.62 108.95,41.98 C107.65,40.92 102.53,36.28 96.88,31.11 L101.1,26.89 L111.55,37.25 Z" fill="#40C4FF"/>
  <path d="M77.87,12.12 C77.87,11.24 78.21,10.36 78.88,9.68 C80.22,8.34 82.41,8.34 83.75,9.68 L101.11,26.89 L96.89,31.11 C88.48,23.42 78.88,14.55 78.88,14.55 C78.21,13.88 77.87,13 77.87,12.12 Z" fill="#9ED839"/>
  <path d="M66.31,100.24 C71.75,97.55 74.83,93.11 76.52,88.18 C76.47,96.59 74.09,104.73 66.98,111.84 C52.45,126.37 33.59,121.18 16.96,116.59 C12.15,115.26 7.86,114.16 4,113.41 L4,97.07 C9.83,97.98 15.65,99.58 21.23,101.11 C33,104.36 52.81,106.93 66.31,100.24 Z" fill="#EE8CFF"/>
  <path d="M67.54,21.53 C59.4,22.6 53.29,28.26 53.29,28.26 C53.29,28.26 54.13,25.62 55.95,22.55 C57.31,20.27 59.17,17.91 61.02,16.05 C75.55,1.52 94.41,6.72 111.04,11.3 C115.85,12.63 120.14,13.73 124,14.48 L124,30.82 C118.17,29.91 112.35,28.31 106.77,26.78 C94.39,23.37 80.45,19.84 67.54,21.53 Z" fill="#EE8CFF"/>
  <path d="M111.94,66.99 C97.41,81.52 78.55,76.33 61.92,71.74 C55.66,70.02 21.84,55.34 6.9,77.96 C6.9,77.96 9.86,57.16 27.59,50.77 C41.9,45.61 63.39,55.49 66.19,56.27 C83.44,61.02 99.59,62.9 113.75,49.79 C116.99,46.79 120.44,42.01 121.2,37.66 C120.85,39.6 125.29,53.64 111.94,66.99 Z" fill="#00BFA5"/>
</svg>
